tools/download-figma-icons/icons/outlined-medium/campfire.svg

<svg width="24" height="24" viewBox="0 0 24 24" fill="none" xmlns="http://www.w3.org/2000/svg">
<path fill-rule="evenodd" clip-rule="evenodd" d="M15.2997 7.27729C14.2021 5.93252 12.8729 4.30388 12.1875 1.9944C8.53584 4.67935 6.75088 7.57429 6.75088 10.8225C6.75088 12.8324 7.95085 13.8974 9.04583 14.4449C8.86508 13.9274 8.75334 13.3267 8.80583 12.6667C8.92508 11.2042 9.80256 9.87674 11.415 8.70676C11.55 8.61677 11.7 8.56427 11.8575 8.56427C12 8.56427 12.1425 8.60927 12.27 8.69176C12.5325 8.86426 12.6525 9.18 12.585 9.47925C12.345 10.5367 12.87 11.07 13.7392 11.8567C14.19 12.2617 14.6542 12.6892 14.8942 13.2374C15.0817 13.6799 15.1192 14.1067 15.0817 14.4966C16.1017 13.9574 17.2867 12.8849 17.2492 10.8375C17.2267 9.63858 16.3892 8.6124 15.3266 7.31026L15.3217 7.30429L15.2997 7.27729ZM11.3625 16.0798C11.2125 16.3716 10.905 16.5373 10.59 16.4923C8.74582 16.2441 5.25165 14.7441 5.25165 10.8224C5.25165 6.78678 7.53835 3.28435 12.24 0.126911C12.45 -0.0155856 12.72 -0.0380852 12.945 0.0594129C13.1767 0.156911 13.35 0.366907 13.3942 0.614402C13.8747 3.15555 15.261 4.85757 16.4823 6.35698L16.4842 6.35928C17.6316 7.76176 18.7109 9.08923 18.7484 10.8067C18.8241 14.6541 15.6142 16.2073 13.9125 16.4923C13.8667 16.4991 13.8292 16.4991 13.785 16.4991H13.785C13.5217 16.4991 13.2667 16.3566 13.1325 16.1241C12.9825 15.8541 13.0125 15.5098 13.2067 15.2699C13.23 15.2466 13.7992 14.5116 13.515 13.8291C13.4156 13.5878 13.114 13.3128 12.7894 13.017C12.7711 13.0003 12.7527 12.9835 12.7342 12.9667C12.195 12.4867 11.4833 11.8499 11.1825 10.9124C10.65 11.5192 10.3508 12.1417 10.2975 12.7874C10.185 14.1449 11.205 15.2099 11.22 15.2166C11.445 15.4491 11.4975 15.7941 11.3625 16.0798ZM1.68962 22.4393C1.74212 22.4768 1.83962 22.5143 1.95211 22.4918L8.49873 21.0593L6.59302 20.6394L1.80212 21.6893C1.59962 21.7343 1.46462 21.9518 1.50962 22.1768C1.53212 22.2893 1.59962 22.3868 1.68962 22.4393ZM22.1237 17.2494C22.1005 17.2494 22.078 17.2494 22.048 17.2569L15.5013 18.6894L17.4063 19.1094L22.1979 18.0594C22.4004 18.0144 22.5354 17.7969 22.4904 17.5719C22.4672 17.4594 22.4004 17.3694 22.3104 17.3094C22.2729 17.2794 22.2055 17.2494 22.1237 17.2494ZM22.3105 22.4393C22.4005 22.3868 22.4672 22.2893 22.4905 22.1768C22.5355 21.9518 22.408 21.7343 22.198 21.6893L17.4213 20.6394L13.9046 19.8744L11.9997 19.4544L8.49125 18.6894L1.95213 17.2569C1.92213 17.2494 1.89963 17.2494 1.87638 17.2494C1.79463 17.2494 1.72714 17.2794 1.68964 17.3094C1.59964 17.3619 1.53214 17.4594 1.50964 17.5719C1.46464 17.7969 1.59214 18.0144 1.80213 18.0594L6.57879 19.1094L10.0955 19.8744L11.9997 20.2944L15.5089 21.0594L22.048 22.4918C22.168 22.5143 22.258 22.4768 22.3105 22.4393ZM20.923 19.8744L22.5204 20.2269C23.5254 20.4444 24.1704 21.4569 23.9604 22.4843C23.8554 22.9868 23.5622 23.4218 23.1272 23.6993C22.8279 23.8943 22.4829 23.9993 22.1237 23.9993C21.9955 23.9993 21.8605 23.9843 21.7255 23.9543L12.0072 21.8244L2.27461 23.9543C2.13961 23.9843 2.00461 23.9993 1.87637 23.9993C1.51712 23.9993 1.17213 23.8943 0.872886 23.6993C0.437145 23.4218 0.144651 22.9868 0.0396529 22.4768C-0.170343 21.4569 0.474644 20.4444 1.48712 20.2194L3.07709 19.8744L1.47962 19.5219C0.474644 19.3044 -0.170343 18.2919 0.0396529 17.2644C0.144651 16.762 0.437145 16.327 0.872886 16.0495C1.28463 15.7795 1.77962 15.682 2.27461 15.7945L11.9929 17.9244L21.7255 15.7945C22.213 15.682 22.7154 15.7795 23.1272 16.0495C23.5622 16.327 23.8554 16.762 23.9604 17.2719C24.1704 18.2919 23.5254 19.3044 22.5129 19.5294L20.923 19.8744Z" fill="black"/>
</svg>

<svg width="24" height="24" viewBox="0 0 24 24" fill="none" xmlns="http://www.w3.org/2000/svg"><path fill-rule="evenodd" clip-rule="evenodd" d="M15.3 7.277c-1.098-1.344-2.427-2.973-3.113-5.283-3.651 2.685-5.436 5.58-5.436 8.828 0 2.01 1.2 3.075 2.295 3.623a4.327 4.327 0 0 1-.24-1.778c.12-1.463.997-2.79 2.609-3.96a.796.796 0 0 1 .443-.143.76.76 0 0 1 .412.128.745.745 0 0 1 .315.787c-.24 1.058.285 1.591 1.154 2.378.451.405.915.832 1.155 1.38.188.443.225.87.188 1.26 1.02-.54 2.205-1.612 2.167-3.66-.022-1.198-.86-2.225-1.922-3.527l-.005-.006-.022-.027Zm-3.938 8.803a.752.752 0 0 1-.772.412c-1.844-.248-5.338-1.748-5.338-5.67 0-4.035 2.286-7.538 6.988-10.695a.753.753 0 0 1 1.154.487c.48 2.542 1.867 4.244 3.088 5.743l.002.002c1.148 1.403 2.227 2.73 2.264 4.448.076 3.847-3.134 5.4-4.836 5.685-.045.007-.083.007-.127.007a.76.76 0 0 1-.652-.375.774.774 0 0 1 .074-.854c.023-.023.592-.758.308-1.44-.1-.242-.401-.517-.726-.813l-.055-.05c-.539-.48-1.25-1.117-1.552-2.055-.532.607-.831 1.23-.885 1.875-.112 1.358.908 2.423.923 2.43a.77.77 0 0 1 .143.863ZM1.69 22.44a.35.35 0 0 0 .262.052L8.5 21.059l-1.906-.42-4.79 1.05c-.203.045-.338.263-.293.488a.39.39 0 0 0 .18.262Zm20.434-5.19c-.023 0-.046 0-.076.007l-6.547 1.432 1.905.42 4.792-1.05c.202-.045.337-.262.292-.487a.414.414 0 0 0-.18-.263.308.308 0 0 0-.186-.06Zm.187 5.19a.396.396 0 0 0 .18-.263c.044-.225-.083-.443-.293-.488l-4.777-1.05-3.516-.765-1.905-.42-3.509-.765-6.539-1.432c-.03-.008-.052-.008-.076-.008a.306.306 0 0 0-.186.06.393.393 0 0 0-.18.263c-.045.225.082.442.292.487l4.777 1.05 3.516.765 1.905.42 3.509.765 6.539 1.433a.34.34 0 0 0 .263-.053Zm-1.388-2.566 1.597.353c1.005.217 1.65 1.23 1.44 2.257a1.886 1.886 0 0 1-.833 1.215 1.83 1.83 0 0 1-1.401.255l-9.719-2.13-9.732 2.13A1.83 1.83 0 0 1 .873 23.7a1.88 1.88 0 0 1-.833-1.222 1.917 1.917 0 0 1 1.447-2.258l1.59-.345-1.597-.352c-1.005-.218-1.65-1.23-1.44-2.258.105-.502.397-.937.833-1.215.412-.27.907-.367 1.402-.255l9.718 2.13 9.732-2.13c.488-.112.99-.014 1.402.255.435.278.728.713.833 1.223a1.917 1.917 0 0 1-1.447 2.257l-1.59.345Z" fill="currentColor"/></svg>
